public/builder.svg

<svg xmlns="http://www.w3.org/2000/svg" height="171pt" version="1.1" viewBox="-16 0 171 171.25045" width="171pt">
<g id="surface1">
<path d="M 120.21875 114.023438 C 126.179688 118.351562 128.996094 131.125 129.582031 135.691406 L 134.027344 169.222656 L 138.671875 168.613281 L 134.230469 135.042969 C 134.136719 134.300781 131.785156 116.617188 122.992188 110.273438 C 120.046875 108.304688 116.890625 106.667969 113.578125 105.398438 C 113.378906 105.246094 113.164062 105.125 112.925781 105.042969 L 110.992188 104.359375 C 108.070312 103.230469 105.019531 102.175781 102.089844 101.261719 L 100.28125 100.628906 C 100.101562 100.5625 99.917969 100.523438 99.726562 100.503906 C 94.828125 98.953125 90.527344 97.808594 88.222656 97.207031 L 88.222656 92.082031 C 95.21875 87.082031 99.375 79.011719 99.367188 70.414062 L 99.367188 66.46875 C 100.148438 66.753906 100.972656 66.902344 101.796875 66.914062 C 105.707031 66.914062 108.875 63.746094 108.875 59.835938 L 108.875 53.523438 C 108.875 51.808594 108.242188 50.15625 107.105469 48.882812 C 107.859375 47.679688 108.242188 46.28125 108.210938 44.867188 L 108.210938 42.171875 C 108.320312 40.207031 107.699219 38.269531 106.472656 36.726562 C 105.835938 36.0625 105.019531 35.585938 104.121094 35.363281 C 103.566406 28.96875 100.53125 10.195312 84.339844 2.859375 L 84.199219 2.859375 C 79.980469 1.050781 75.453125 0.0820312 70.871094 0.0078125 L 69.523438 0.0078125 C 65.140625 -0.0820312 60.777344 0.605469 56.628906 2.035156 L 56.519531 2.035156 C 38.589844 8.628906 35.359375 28.664062 34.851562 35.300781 C 33.949219 35.523438 33.128906 35.996094 32.496094 36.664062 C 31.210938 38.1875 30.539062 40.128906 30.621094 42.113281 L 30.621094 44.886719 C 30.585938 46.300781 30.96875 47.695312 31.71875 48.890625 C 30.589844 50.175781 29.953125 51.828125 29.953125 53.542969 L 29.953125 59.867188 C 29.953125 63.777344 33.125 66.941406 37.03125 66.941406 C 37.863281 66.941406 38.679688 66.789062 39.457031 66.496094 L 39.457031 70.457031 C 39.472656 78.957031 43.539062 86.9375 50.40625 91.945312 L 50.40625 97.207031 C 42.125 99.367188 33.964844 101.988281 25.976562 105.070312 L 25.871094 105.070312 C 22.332031 106.394531 18.957031 108.125 15.804688 110.210938 C 7.011719 116.617188 4.664062 134.28125 4.566406 134.984375 L 0.125 168.574219 L 4.769531 169.175781 L 9.210938 135.585938 C 9.804688 131.03125 12.613281 118.273438 18.5 113.910156 C 20.371094 112.664062 22.355469 111.601562 24.429688 110.734375 L 24.429688 130.855469 C 21.007812 132.113281 16.691406 135.632812 16.691406 143.0625 L 16.691406 168.929688 C 16.691406 170.207031 17.726562 171.25 19.011719 171.25 L 119.894531 171.25 C 121.179688 171.25 122.210938 170.207031 122.210938 168.929688 L 122.210938 143.105469 C 122.210938 135.675781 117.867188 132.160156 114.472656 130.90625 L 114.472656 110.785156 C 116.492188 111.675781 118.410156 112.761719 120.21875 114.023438 Z M 104.273438 53.523438 L 104.273438 59.855469 C 104.171875 61.191406 102.996094 62.191406 101.660156 62.085938 C 100.472656 61.988281 99.527344 61.042969 99.429688 59.855469 L 99.429688 53.523438 C 99.328125 52.183594 100.320312 51.015625 101.660156 50.902344 C 102.996094 50.796875 104.171875 51.796875 104.273438 53.132812 C 104.289062 53.261719 104.289062 53.394531 104.273438 53.523438 Z M 72.695312 4.761719 C 75.519531 4.976562 78.304688 5.589844 80.964844 6.566406 L 80.964844 18.320312 C 79.050781 21.074219 76.03125 22.84375 72.695312 23.164062 Z M 59.785156 5.921875 C 62.472656 5.152344 65.25 4.726562 68.054688 4.652344 L 68.054688 23.226562 C 64.71875 22.90625 61.691406 21.132812 59.785156 18.378906 Z M 39.398438 59.835938 C 39.292969 61.171875 38.117188 62.175781 36.785156 62.066406 C 35.597656 61.976562 34.652344 61.03125 34.554688 59.835938 L 34.554688 53.523438 C 34.445312 52.183594 35.445312 51.015625 36.785156 50.902344 C 38.117188 50.796875 39.292969 51.796875 39.398438 53.132812 C 39.410156 53.261719 39.410156 53.394531 39.398438 53.523438 Z M 36.96875 46.433594 C 36.527344 46.433594 36.097656 46.476562 35.671875 46.554688 C 35.3125 46.074219 35.140625 45.46875 35.203125 44.867188 L 35.203125 42.054688 C 35.175781 41.316406 35.359375 40.589844 35.746094 39.960938 C 35.835938 39.886719 35.953125 39.859375 36.074219 39.875 L 36.96875 39.875 C 38.25 39.875 39.292969 38.832031 39.292969 37.546875 C 39.292969 36.464844 39.597656 15.871094 55.128906 7.789062 L 55.128906 18.941406 C 55.128906 19.285156 55.207031 19.621094 55.355469 19.929688 C 55.515625 20.253906 59.300781 27.980469 70.355469 27.980469 C 81.40625 27.980469 85.207031 20.242188 85.359375 19.929688 C 85.5 19.621094 85.582031 19.285156 85.570312 18.941406 L 85.570312 8.90625 C 99.183594 17.59375 99.507812 36.507812 99.507812 37.546875 C 99.507812 38.832031 100.550781 39.875 101.828125 39.875 L 102.726562 39.875 C 102.957031 39.875 103.007812 39.875 103.050781 39.960938 C 103.445312 40.605469 103.628906 41.347656 103.59375 42.105469 L 103.59375 44.867188 C 103.65625 45.476562 103.476562 46.085938 103.097656 46.554688 C 100.820312 46.105469 98.464844 46.824219 96.832031 48.480469 L 41.996094 48.480469 C 40.664062 47.15625 38.855469 46.429688 36.984375 46.449219 Z M 44.042969 70.457031 L 44.042969 53.125 L 94.816406 53.125 L 94.816406 70.457031 C 94.796875 82.628906 84.925781 92.480469 72.757812 92.46875 L 66.070312 92.46875 C 53.914062 92.464844 44.058594 82.617188 44.042969 70.457031 Z M 83.636719 94.777344 L 83.636719 98.210938 L 69.398438 116.417969 L 55 98.210938 L 55 94.679688 C 58.472656 96.292969 62.25 97.125 66.070312 97.128906 L 72.757812 97.128906 C 76.511719 97.128906 80.222656 96.324219 83.636719 94.777344 Z M 41.582031 104.546875 C 46.007812 103.195312 49.820312 102.164062 51.796875 101.648438 L 69.429688 123.941406 L 86.863281 101.648438 C 88.867188 102.175781 92.742188 103.195312 97.265625 104.605469 L 97.265625 131.199219 L 41.53125 131.199219 Z M 117.574219 143.105469 L 117.574219 166.648438 L 21.332031 166.648438 L 21.332031 143.105469 C 21.332031 136.097656 26.519531 135.089844 27.074219 134.992188 C 28.226562 134.832031 29.074219 133.847656 29.074219 132.691406 L 29.074219 108.847656 C 31.625 107.855469 34.335938 106.914062 36.96875 106.0625 L 36.96875 133.523438 C 36.96875 134.808594 38.007812 135.851562 39.292969 135.851562 L 99.660156 135.851562 C 100.941406 135.851562 101.984375 134.808594 101.984375 133.523438 L 101.984375 106.109375 L 109.800781 108.847656 L 109.800781 132.691406 C 109.800781 133.851562 110.664062 134.84375 111.8125 134.992188 C 112.050781 135.023438 117.574219 135.851562 117.574219 143.105469 Z M 117.574219 143.105469 " style=" stroke:none;fill-rule:nonzero;fill:rgb(0%,0%,0%);fill-opacity:1;" />
<path d="M 26.707031 140.179688 L 39.242188 140.179688 L 39.242188 144.34375 L 26.707031 144.34375 Z M 26.707031 140.179688 " style=" stroke:none;fill-rule:nonzero;fill:rgb(0%,0%,0%);fill-opacity:1;" />
<path d="M 99.585938 140.179688 L 112.128906 140.179688 L 112.128906 144.34375 L 99.585938 144.34375 Z M 99.585938 140.179688 " style=" stroke:none;fill-rule:nonzero;fill:rgb(0%,0%,0%);fill-opacity:1;" />
</g>
</svg>

<svg xmlns="http://www.w3.org/2000/svg" height="228" viewBox="-16 0 171 171.25" width="228"><path d="M120.219 114.023c5.96 4.329 8.777 17.102 9.363 21.668l4.445 33.532 4.645-.61-4.442-33.57c-.093-.742-2.445-18.426-11.238-24.77a47.585 47.585 0 0 0-9.414-4.875 2.302 2.302 0 0 0-.652-.355l-1.934-.684a144.166 144.166 0 0 0-8.902-3.097l-1.809-.633a2.24 2.24 0 0 0-.554-.125c-4.899-1.55-9.2-2.695-11.504-3.297v-5.125a26.61 26.61 0 0 0 11.144-21.668V66.47a7.402 7.402 0 0 0 2.43.445 7.077 7.077 0 0 0 7.078-7.078v-6.313a6.972 6.972 0 0 0-1.77-4.64 7.265 7.265 0 0 0 1.106-4.016v-2.695a8.037 8.037 0 0 0-1.738-5.445 4.896 4.896 0 0 0-2.352-1.364c-.555-6.394-3.59-25.168-19.781-32.504h-.14A35.278 35.278 0 0 0 70.87.008h-1.348A37.227 37.227 0 0 0 56.63 2.035h-.11C38.59 8.63 35.36 28.665 34.853 35.301a4.842 4.842 0 0 0-2.356 1.363 7.943 7.943 0 0 0-1.875 5.45v2.773a7.202 7.202 0 0 0 1.098 4.004 7.06 7.06 0 0 0-1.766 4.652v6.324a7.076 7.076 0 0 0 7.078 7.074 6.86 6.86 0 0 0 2.426-.445v3.961a26.653 26.653 0 0 0 10.95 21.488v5.262a227.15 227.15 0 0 0-24.43 7.863h-.106a50.012 50.012 0 0 0-10.066 5.14c-8.793 6.407-11.14 24.071-11.239 24.774l-4.441 33.59 4.645.602 4.44-33.59c.595-4.555 3.403-17.313 9.29-21.676a35.162 35.162 0 0 1 5.93-3.176v20.121c-3.422 1.258-7.739 4.778-7.739 12.208v25.867a2.32 2.32 0 0 0 2.32 2.32h100.884a2.317 2.317 0 0 0 2.316-2.32v-25.825c0-7.43-4.344-10.945-7.738-12.199v-20.12a34.05 34.05 0 0 1 5.746 3.237zm-15.946-60.5v6.332a2.43 2.43 0 0 1-2.613 2.23 2.44 2.44 0 0 1-2.23-2.23v-6.332a2.441 2.441 0 0 1 2.23-2.62 2.43 2.43 0 0 1 2.613 2.23 1.59 1.59 0 0 1 0 .39zM72.695 4.762c2.825.215 5.61.828 8.27 1.804V18.32a11.39 11.39 0 0 1-8.27 4.844zm-12.91 1.16a33.226 33.226 0 0 1 8.27-1.27v18.575a11.38 11.38 0 0 1-8.27-4.848zM39.398 59.836a2.431 2.431 0 0 1-2.613 2.23 2.428 2.428 0 0 1-2.23-2.23v-6.313a2.436 2.436 0 0 1 2.23-2.62 2.434 2.434 0 0 1 2.613 2.62zm-2.43-13.402c-.44 0-.87.043-1.296.12a2.412 2.412 0 0 1-.469-1.687v-2.812a3.722 3.722 0 0 1 .543-2.094.422.422 0 0 1 .328-.086h.895a2.328 2.328 0 0 0 2.324-2.328c0-1.082.305-21.676 15.836-29.758v11.152c0 .344.078.68.226.989.16.324 3.946 8.05 15 8.05 11.051 0 14.852-7.738 15.004-8.05.141-.309.223-.645.211-.989V8.906c13.614 8.688 13.938 27.602 13.938 28.64a2.327 2.327 0 0 0 2.32 2.329h.899c.23 0 .28 0 .324.086.394.644.578 1.387.543 2.144v2.762a2.313 2.313 0 0 1-.496 1.688 6.917 6.917 0 0 0-6.266 1.925H41.996a7.004 7.004 0 0 0-5.012-2.03zm7.075 24.023V53.125h50.773v17.332c-.02 12.172-9.89 22.023-22.058 22.012H66.07c-12.156-.004-22.011-9.852-22.027-22.012zm39.594 24.32v3.434l-14.239 18.207L55 98.211V94.68a26.334 26.334 0 0 0 11.07 2.449h6.688a26.37 26.37 0 0 0 10.879-2.352zm-42.055 9.77a267.89 267.89 0 0 1 10.215-2.899l17.633 22.293 17.433-22.293c2.004.528 5.88 1.547 10.403 2.957V131.2H41.53zm75.992 38.558v23.543H21.332v-23.543c0-7.007 5.188-8.015 5.742-8.113a2.32 2.32 0 0 0 2-2.3v-23.844a144.966 144.966 0 0 1 7.895-2.785v27.46a2.326 2.326 0 0 0 2.324 2.329H99.66a2.328 2.328 0 0 0 2.324-2.329V106.11l7.817 2.739v23.843c0 1.16.863 2.153 2.011 2.301.239.031 5.762.86 5.762 8.113zm0 0" style="stroke:none;fill-rule:nonzero;fill:#000;fill-opacity:1"/><path d="M26.707 140.18h12.535v4.164H26.707zm72.879 0h12.543v4.164H99.586zm0 0" style="stroke:none;fill-rule:nonzero;fill:#000;fill-opacity:1"/></svg>
